svg/bot-broken.svg

<?xml version="1.0" encoding="UTF-8"?>
<svg xmlns="http://www.w3.org/2000/svg" xmlns:xlink="http://www.w3.org/1999/xlink" width="32" height="32" viewBox="0 0 32 32">
<path fill-rule="nonzero" fill="rgb(0%, 0%, 0%)" fill-opacity="1" d="M 30.078125 18.558594 L 29.441406 18.558594 L 29.441406 17.363281 C 29.441406 16.40625 28.921875 15.574219 28.160156 15.109375 L 28.160156 23.289062 C 28.953125 22.8125 29.4375 21.957031 29.441406 21.035156 L 29.441406 19.839844 L 30.078125 19.839844 C 30.421875 19.828125 30.695312 19.542969 30.695312 19.199219 C 30.695312 18.855469 30.421875 18.574219 30.078125 18.558594 M 22.515625 8.960938 L 9.484375 8.960938 C 7.074219 8.960938 5.125 10.914062 5.121094 13.324219 L 5.121094 25.714844 C 5.125 28.121094 7.074219 30.074219 9.484375 30.078125 L 22.515625 30.078125 C 24.925781 30.074219 26.875 28.121094 26.878906 25.714844 L 26.878906 13.324219 C 26.875 10.914062 24.925781 8.960938 22.515625 8.960938 M 9.710938 15.734375 C 9.589844 15.613281 9.523438 15.453125 9.523438 15.28125 C 9.523438 15.113281 9.589844 14.953125 9.710938 14.832031 C 9.828125 14.710938 9.992188 14.640625 10.160156 14.640625 C 10.332031 14.640625 10.492188 14.710938 10.613281 14.832031 L 11.519531 15.734375 L 12.425781 14.832031 C 12.542969 14.710938 12.707031 14.640625 12.875 14.640625 C 13.046875 14.640625 13.207031 14.710938 13.328125 14.832031 C 13.449219 14.949219 13.515625 15.113281 13.515625 15.28125 C 13.515625 15.453125 13.449219 15.617188 13.328125 15.734375 L 12.425781 16.640625 L 13.328125 17.546875 C 13.449219 17.664062 13.515625 17.828125 13.515625 17.996094 C 13.515625 18.167969 13.449219 18.332031 13.328125 18.449219 C 13.078125 18.699219 12.675781 18.699219 12.425781 18.449219 L 11.519531 17.546875 L 10.613281 18.449219 C 10.359375 18.671875 9.976562 18.660156 9.738281 18.421875 C 9.496094 18.183594 9.484375 17.800781 9.710938 17.546875 L 10.613281 16.640625 Z M 22.292969 25.316406 C 22.171875 25.492188 21.972656 25.601562 21.757812 25.601562 C 21.632812 25.601562 21.507812 25.5625 21.40625 25.492188 L 19.835938 24.449219 L 18.269531 25.492188 C 18.054688 25.636719 17.773438 25.636719 17.558594 25.492188 L 15.996094 24.449219 L 14.429688 25.492188 C 14.214844 25.636719 13.933594 25.636719 13.71875 25.492188 L 12.15625 24.449219 L 10.597656 25.492188 C 10.300781 25.6875 9.90625 25.609375 9.707031 25.316406 C 9.613281 25.175781 9.578125 25 9.613281 24.835938 C 9.644531 24.667969 9.746094 24.523438 9.886719 24.429688 L 11.800781 23.148438 C 12.015625 23.003906 12.296875 23.003906 12.511719 23.148438 L 14.074219 24.191406 L 15.640625 23.148438 C 15.851562 23.003906 16.132812 23.003906 16.347656 23.148438 L 17.914062 24.191406 L 19.480469 23.148438 C 19.695312 23.003906 19.976562 23.003906 20.191406 23.148438 L 22.113281 24.425781 C 22.40625 24.621094 22.488281 25.019531 22.292969 25.316406 M 20.480469 18.558594 C 19.417969 18.5625 18.558594 17.703125 18.558594 16.640625 C 18.558594 15.582031 19.414062 14.722656 20.476562 14.71875 C 21.535156 14.71875 22.398438 15.578125 22.398438 16.636719 C 22.398438 17.699219 21.539062 18.558594 20.480469 18.558594 M 16.875 6.398438 L 16.640625 6.398438 L 16.640625 4.625 C 16.640625 4.292969 16.816406 3.984375 17.101562 3.820312 C 17.390625 3.652344 17.742188 3.652344 18.03125 3.816406 L 18.59375 4.140625 C 18.574219 4.25 18.558594 4.363281 18.558594 4.480469 C 18.5625 5.539062 19.421875 6.398438 20.480469 6.394531 C 21.539062 6.394531 22.394531 5.535156 22.398438 4.476562 C 22.398438 3.417969 21.539062 2.558594 20.480469 2.558594 C 20.003906 2.558594 19.570312 2.742188 19.234375 3.03125 L 18.667969 2.707031 C 17.984375 2.308594 17.140625 2.3125 16.460938 2.714844 C 15.777344 3.105469 15.355469 3.835938 15.359375 4.625 L 15.359375 6.398438 L 15.125 6.398438 C 14.152344 6.398438 13.242188 6.878906 12.691406 7.679688 L 19.308594 7.679688 C 18.757812 6.878906 17.847656 6.398438 16.875 6.398438 M 2.558594 17.363281 L 2.558594 18.558594 L 1.921875 18.558594 C 1.582031 18.578125 1.316406 18.859375 1.316406 19.199219 C 1.316406 19.539062 1.582031 19.820312 1.921875 19.839844 L 2.558594 19.839844 L 2.558594 21.035156 C 2.558594 21.992188 3.078125 22.824219 3.839844 23.289062 L 3.839844 15.109375 C 3.046875 15.585938 2.5625 16.4375 2.558594 17.363281 M 2.558594 17.363281 "/>
</svg>

<svg role="img" viewBox="0 0 32 32" height="32" width="32" xmlns="http://www.w3.org/2000/svg"><path d="M30.078 18.559h-.637v-1.196c0-.957-.52-1.789-1.28-2.254v8.18a2.644 2.644 0 0 0 1.28-2.254V19.84h.637a.641.641 0 0 0 0-1.281M22.516 8.96H9.484a4.368 4.368 0 0 0-4.363 4.363v12.39a4.368 4.368 0 0 0 4.363 4.364h13.032a4.368 4.368 0 0 0 4.363-4.363v-12.39a4.368 4.368 0 0 0-4.363-4.364M9.71 15.734a.637.637 0 0 1 0-.902.63.63 0 0 1 .902 0l.907.902.906-.902a.63.63 0 0 1 .902 0 .63.63 0 0 1 0 .902l-.902.907.902.906a.63.63 0 0 1 0 .902.639.639 0 0 1-.902 0l-.906-.902-.907.902a.639.639 0 0 1-.902-.902l.902-.906Zm12.582 9.582a.648.648 0 0 1-.535.286.621.621 0 0 1-.352-.11l-1.57-1.043-1.566 1.043a.637.637 0 0 1-.711 0l-1.563-1.043-1.566 1.043a.637.637 0 0 1-.711 0l-1.563-1.043-1.558 1.043a.645.645 0 0 1-.891-.176.638.638 0 0 1 .18-.886l1.914-1.282a.637.637 0 0 1 .71 0l1.563 1.043 1.567-1.043a.63.63 0 0 1 .707 0l1.566 1.043 1.566-1.043a.637.637 0 0 1 .711 0l1.922 1.278a.642.642 0 0 1 .18.89M20.48 18.56a1.92 1.92 0 1 1-.004-3.84 1.92 1.92 0 0 1 .004 3.84M16.875 6.4h-.234V4.624a.93.93 0 0 1 1.39-.809l.563.325c-.02.109-.035.222-.035.34a1.919 1.919 0 1 0 1.922-1.922c-.477 0-.91.183-1.247.472l-.566-.324a2.187 2.187 0 0 0-2.207.008 2.189 2.189 0 0 0-1.102 1.91v1.773h-.234a2.956 2.956 0 0 0-2.434 1.282h6.618a2.956 2.956 0 0 0-2.434-1.282M2.559 17.362v1.196h-.637a.641.641 0 0 0 0 1.28h.637v1.196c0 .957.52 1.79 1.28 2.254v-8.18a2.644 2.644 0 0 0-1.28 2.254m0 0"/></svg>
